X: 4072
T: Miss Forbes's    Reel
%R: reel
B: Niel Gow & Sons "A Fourth Collection of Strathspey Reels, etc." v.4 p.7 #2
Z: 2022 John Chambers <jc:trillian.mit.edu>
M: C
L: 1/8
K: C
% - - - - - - - - - -
% Voice 1 reformatted for 2 8-bar lines, for compactness and proofreading.
V: 1 staves=2
F | EG-G>c AcGc | EG-G>E F>D-D>F | E>G-G>c B>cd>f | e<cg>c Gc-cF \
|| EG-G>c AcGc | EG-G>E F>D-D>F | E>G-G>c B>cd>f | e<cg>c Gc-c |]
[| a | gcec gc fa | gcec Bdfa | g>ca>c g>ce>c | fdBg ecca \
|| gcec gcfa | gcec dfBg | ecBc Gcec | f>dg>d ecc |]
% - - - - - - - - - -
% Voice 2 preserves the staff layout in the book.
V: 2 clef=bass middle=d
z | c2e2 f2e2 | c2c'2 g2G2 | c2c2 g2g2 | a2g2 e2c2 || c2e2 f2e2 |
c2c'2 g2G2 | c2c2 g2b2 | c'2g2 e2c |] [| z | c'2c2 e2f2 | e2c2 g2G2 | e2f2 e2c2 |
g2G2 c2c2 || c2c2 e2f2 | e2c2 G2G2 | c2f2 e2c2 | f2g2 c2c |]
